X:6838
T:The Gold-Haired Maid
O:england
B:Joyce, P. W.; "Old Irish Folk Music and Songs"
H:[Note from editor: The type of tune is not listed, but it sounds good
H: if played as a hornpipe--Allen Garvin earendil@faeryland.tamu-commerce.edu]
R:hornpipe
L:1/8
M:C
K:G
"Mod.: or rather slow."\
GE|D2 DE GFGA|Bdef g3 e|dBAB GABd| cBAG E2 GE|
D2 DE GFGA|Bdef g3 e|dBAG AcBA|G2 G2 G2||GA|
Bdef g2 fg|agfd e3 e|dBAB GABd|cBAG A2 GE|
D2 DE GFGA|Bdef g3 e|dBAG AcBA|G2 G2 G2||


